X:1
T:Les 3 Marins De Groix
C:Trad, fichier ABC par Bernard Loffet
L:1/8
Q:352
M:3/4
K:G
z4B,2|[E2E,2]E,2[F2A,2]|[G2E,2]E,2[A2A,2]|[B2G,2]G,2[B2G,2]|[B2G,2]G,2G,2|[d2C,2]C,2[c2C,2]|[B2D,2]D,2[A2D,2]|[B2E,2]E,2E,2|E,2E,2[B,2E,2]|[E2E,2]E,2[F2A,2]| \
[G2E,2]E,2[A2A,2]|[B2G,2]G,2[B2G,2]|[B2G,2]G,2G,2|[d2C,2]C,2[c2C,2]|[B2D,2]D,2[A2D,2]|[B2E,2]E,2E,2|E,2E,2[E2E,2]|[G2E,2]E,2E,2|[F2D,2]D,2D,2|[E2E,2]E,2E,2| \
E,2E,2[E2E,2]|[G2C,2]C,2C,2|[A2D,2]D,2D,2|[B2G,2]G,2G,2|G,2G,2G,2|[B2G,2]G,2[B2G,2]|[A2D,2]D,2D,2|[B2D,2]D,2[B2D,2]|[G2E,2]E,2E,2|[G2E,2][G2E,2][G2E,2]| \
[G2C,2]C,2C,2|[F2D,2]D,2D,2|[E2E,2]E,2E,2|E,2E,4| \
Z:Created with TablEdit http://www.tabledit.com/, by Bernard Loffet
